gy/si-glyph-infinity-2.svg

<svg viewBox="0 0 17 16" xmlns="http://www.w3.org/2000/svg" class="si-glyph si-glyph-infinity-2" height="1em" width="1em">
  <path d="M4.352 12.941c-2.383 0-4.32-1.992-4.32-4.441s1.938-4.441 4.32-4.441a4.29 4.29 0 0 1 3.424 1.73l-.972.951a2.968 2.968 0 0 0-2.452-1.315c-1.648 0-2.988 1.38-2.988 3.075 0 1.695 1.341 3.075 2.988 3.075.868 0 2.119-1.929 3.126-3.478 1.349-2.078 2.622-4.039 4.173-4.039 2.377 0 4.31 1.986 4.31 4.428s-1.933 4.428-4.31 4.428c-1.339 0-2.6-.641-3.414-1.727l.963-.962a2.964 2.964 0 0 0 2.451 1.323c1.642 0 2.978-1.374 2.978-3.062 0-1.688-1.336-3.062-2.978-3.062-.836 0-2.073 1.902-3.065 3.431-1.365 2.102-2.654 4.086-4.234 4.086Z" fill="#434343" class="si-glyph-fill" fill-rule="evenodd"/>
</svg>

<svg viewBox="0 0 17 16" version="1.1" xmlns="http://www.w3.org/2000/svg" class="si-glyph si-glyph-infinity-2" height="1em" width="1em">
  <g stroke="none" stroke-width="1" fill="none" fill-rule="evenodd">
    <path d="M4.352,12.941 C1.969,12.941 0.032,10.949 0.032,8.5 C0.032,6.051 1.97,4.059 4.352,4.059 C5.696,4.059 6.958,4.702 7.776,5.789 L6.804,6.74 C6.244,5.916 5.329,5.425 4.352,5.425 C2.704,5.425 1.364,6.805 1.364,8.5 C1.364,10.195 2.705,11.575 4.352,11.575 C5.22,11.575 6.471,9.646 7.478,8.097 C8.827,6.019 10.1,4.058 11.651,4.058 C14.028,4.058 15.961,6.044 15.961,8.486 C15.961,10.928 14.028,12.914 11.651,12.914 C10.312,12.914 9.051,12.273 8.237,11.187 L9.2,10.225 C9.759,11.053 10.675,11.548 11.651,11.548 C13.293,11.548 14.629,10.174 14.629,8.486 C14.629,6.798 13.293,5.424 11.651,5.424 C10.815,5.424 9.578,7.326 8.586,8.855 C7.221,10.957 5.932,12.941 4.352,12.941 L4.352,12.941 Z" fill="#434343" class="si-glyph-fill"/>
  </g>
</svg>
